!!!!SEGMENT: pl-wnifc--13846--145_anonim--piesni-polskie-i-ruskie-ludu-galicyjskiego-145-ozdobo-twarzy-pokretne-wasy.krn
!!!cenid: 18xx:3367
!!!COM: Anonim
!!!COM-rismID: pe30004985
!!!CDT:
!!!CNT:
!!!GTL: Pieśni polskie i ruskie ludu galicyjskiego
!!!OTL: 145. Ozdobo twarzy pokrętne wąsy
!!!PDT: 1833
!!!AGN:
!!!SMS-siglum: PL-Wnifc
!!!SMS-shelfmark: 13846
!!!SMS-shelfwork: 145 G
!!!NIFC-rismSourceID: 1001039677
!!!NIFC-rismChildID: 1001039677
!!!NIFC-islandoraID:
!!!URL-pdf-islandora:
!!!URL-scan:
!!!ONB-nifc:
!!!OMD: Tempo di marcia
!!!AIN: 1 piano 1 soprn
!!!key: A
**kern	**kern	**dynam	**kern	**text
*group2	*group2	*	*group1	*
*part2	*part2	*part2	*part1	*part1
*staff3	*staff2	*	*staff1	*staff1
*I"[Piano]	*I"[Piano]	*	*I"[Soprano]	*
*Ipiano	*Ipiano	*	*Isoprn	*
*ICklav	*ICklav	*	*ICvox	*
*IGacmp	*IGacmp	*	*IGsolo	*
*clefF4	*clefG2	*	*clefG2	*
*k[f#c#g#]	*k[f#c#g#]	*	*k[f#c#g#]	*
*A:	*A:	*	*A:	*
*M4/4	*M4/4	*	*M4/4	*
*met(c)	*met(c)	*	*met(c)	*
*>[A,B,B]	*>[A,B,B]	*	*>[A,B,B]	*
=1-	=1-	=1-	=1-	=1-
*>A	*>A	*	*>A	*
*	*	*^	*	*
!	!	!LO:DY:rj	!LO:DY:b=2:rj	!LO:TX:b:B:rj:t=E.201.	!
4AAA/ 4AA/	4e\ 4a\ 4cc#\ 4ee\	f	f	4ee\	O-
.	(<16qe/LL	.	.	.	.
!	!	!	!LO:DY:b=2	!	!
.	16qa/JJ)	f	f	.	.
4CC#/ 4C#/	8cc#\L 8ee\	.	.	8ee\	-zdo-
.	8cc#\J 8ee\	.	.	8ee\	-bo
!	!	!	!LO:DY:b=2:rj	!	!
4EE/ 4E/	4.cc#\ 4.ee\	.	f	4.ee\	twa-
!	!	!	!LO:DY:b=2:rj	!	!
4AA/ 4A/	.	.	f	.	.
.	8a\ 8cc#\	.	.	8cc#\	-rzy
*	*	*v	*v	*	*
=2	=2	=2	=2	=2
*	*^	*	*	*
4BBB^>/ 4BB/	8.dd/L	4d\ 4f#\	.	(>8.dd\L	po-
.	16b/Jk	.	.	16b\Jk)	.
4EE^>/ 4E/	(</8aL	4B\ 4d\	.	8a/	-krę-
.	8g#/J)	.	.	8g#/	-tne
2AAA^>/ 2AA/	8b/L	2c#\ 2e\	.	8b/L	wą-
.	8a/J	.	.	8a/J	.
.	4a/	.	.	4a/	-sy,
*	*v	*v	*	*	*
!!LO:LB:g=original
=3	=3	=3	=3	=3
*	*	*^	*	*
8AAA'</L 8AA/	4a'>\ 4cc#\	.	.	4cc#\	po-
8AA'</ 8A/	.	.	.	.	.
8AA'</ 8A/	8b'>\L 8dd\	.	.	8dd\	-wsta-
8AA'</J 8A/	8cc#'>\J 8ee\	.	.	8ee\	-je
!	!	!LO:DY:rj	!LO:DY:b=2:rj	!	!
8DD'</L 8D/	4.f#\ 4.dd\ 4.ff#\	f	f	4.ff#\	na
8FF#'</ 8F#/	.	.	.	.	.
8AA'</ 8A/	.	.	.	.	.
8AA#X'</J 8A#X/	8gn\ 8cc#\ 8ee\	.	.	8ee\	was
*	*	*v	*v	*	*
=4	=4	=4	=4	=4
*	*^	*	*	*
4BB^<\ 4B\	8.ee/L	4f#\ 4b\	.	(>8.ee\L	ròd
.	16dd/Jk	.	.	16dd\Jk)	.
8GG#\L 8G#\	8b/L 8dd/	8e\L	.	8dd\	-znie-
8AA\J 8A\	8a/J 8cc#/	8e\J	.	8cc#\	-wie-
2EE/ 2E/	(>\8.aL 8.cc#\	2ryy	.	(>8.cc#\L	ścia-
.	16g#\Jk) 16b\	.	.	16b\Jk)	.
.	4g#\ 4b\	.	.	4b\	-&#322;y,
!!LO:PB:g=original
=5!|:	=5!|:	=5!|:	=5!|:	=5!|:	=5!|:
*>B	*>B	*>B	*	*>B	*
2DD^>/ 2D/	4g#/ 4b/ 4ee/	4e\	<	4ee\	dwo-
.	8f#/L 8b/ 8ff#/	4ryy	.	8ff#\	-ru-
.	8g#/J 8b/ 8gg#/	.	[	8gg#\	-ją
2CC#^>/ 2C#/	4.a^<\ 4.ee\ 4.aa\	2ryy	.	4.aa\	tre-
.	8a\ 8ee\	.	.	8ee\	-fne
*	*v	*v	*	*	*
=6	=6	=6	=6	=6
4GGG#/ 4GG#/	(>\8.ddL 8.ff#\	>	(>8.ff#\L	dzie'-
.	16cc#\Jk) 16ee\	]	16ee\Jk)	.
4AAA/ 4AA/	8b'>\L 8dd\	.	8dd\	-wcz&#261;t
.	8a'>\J 8cc#\	.	8cc#\	prze-
2EE/ 2E/	(>8.a\L 8.cc#\	.	(>8.cc#\L	-ką-
.	16g#\Jk) 16b\	.	16b\Jk)	.
.	4g#\ 4b\	.	4b\	-sy,
!!LO:LB:g=original
=7	=7	=7	=7	=7
4EE\ 4E\	4G#</ 4e/	.	4e/	śmie-
8DD#X\L 8D#X\	8A</ 8B/L 8f#/	.	8f#/	-jąc
8DDn\J 8Dn\	8B</ 8e/J 8g#/	.	8g#/	się
2CC#/ 2C#/	4.A</ 4.e/ 4.a/	.	4.a/	zda-
.	8e/ 8a/ 8cc#/	.	8cc#\	-wne'j
=8	=8	=8	=8	=8
*	*^	*	*	*
4DD/ 4D/	8.b/L	8.f#\L	.	8.b\L	Po-
.	16f#/Jk 16dd/	16f#\Jk	.	16dd\Jk	.
4EE/ 4E/	(<8B/L 8g#/	4ryy	.	8g#/	-la-
.	8d/J) 8b/	.	.	8b/	-ka
2AAA/ 2AA/	(</8dL 8b/	2ryy	.	(<8.b/L	chwa-
.	8c#/J) 8a/	.	.	.	.
.	.	.	.	16a/Jk)	.
.	4c#/ 4a/	.	.	4a/	-ły.
*	*v	*v	*	*	*
=:|!	=:|!	=:|!	=:|!	=:|!
*-	*-	*-	*-	*-
!!!system-decoration: g1,[{g2}]
!!!RDF**kern: > = above
!!!RDF**kern: < = below
!!!ENC: Jędrzej Mróz
!!!END: 2021-11-12
!!!YEC: Copyright 2022 Narodowy Instytut Fryderyka Chopina (https://polishscores.org)
!!!YEM: License CC-BY-4.0 (https://creativecommons.org/licenses/by/4.0)
